X: 6
T: Nail That Catfish to the Tree
L: 1/8
M: 4/4
C: Steve Rosen
K: G
Q: 230
DE |"G"G2 B2 A2 B2 | cBA2 B4 |"D" ABAG FDAB | AGFD E2 D2 |
"G"G2 B2 A2 B2 | cBA2 B4 |"D" ABAG FDEF |"G" G4 G2 :|| 
F2 |"C" E4 G4 | c8 | "D" ABAG FDAB | AGFD E2 D2 |
    "C" E4 G4 | c8 |1"D" ABAG FDEF |"G" G4 G2 :||2 "D" d2 c2 B2 A2 |"G" G4 ||

